source/img/eco.svg

<svg width="46" height="56" viewBox="0 0 46 56" fill="none" xmlns="http://www.w3.org/2000/svg">
<path fill-rule="evenodd" clip-rule="evenodd" d="M38.7068 22.1225C39.4764 15.5574 40.2041 9.34979 45.9997 4C19.5072 3.99988 11.8468 12.128 7.9998 17.9999C-0.541753 31.0373 7.08506 43.6704 8.7106 46.0864C7.76149 47.9699 6.8453 49.8228 5.96853 51.596C5.28756 52.9732 4.63037 54.3023 4 55.5603L4.88103 55.9999C5.51647 54.7318 6.17882 53.3919 6.86491 52.0041C7.71305 50.2884 8.59746 48.4993 9.51217 46.6817C12.1065 47.5486 23.9646 50.8651 31.5 41.9999C37.1568 35.3449 37.9519 28.5617 38.7068 22.1225Z" fill="#F0EBFF"/>
<path fill-rule="evenodd" clip-rule="evenodd" d="M5.23221 41.055C9.18989 33.2582 13.686 25.0948 18.2668 19.9999L19 20.6562C14.4314 25.7376 9.93043 33.9532 5.96782 41.779C6.34578 41.9019 6.88834 42.0652 7.56144 42.2326C8.95668 42.5795 10.8987 42.9402 13.0898 43.0003C17.4744 43.1204 22.753 42.0406 26.7381 37.3522C32.1982 30.9285 32.9631 24.4063 33.7206 17.9463L33.7357 17.8172C34.4173 12.0063 35.12 6.18297 39.6108 1.02289C27.8214 1.2525 20.1299 3.18456 14.9438 5.69784C9.44336 8.36348 6.69156 11.7161 4.83626 14.5479C0.283102 21.4976 0.51823 28.3097 1.90266 33.4262C2.59642 35.9902 3.57807 38.1203 4.38638 39.6085C4.70612 40.1972 4.99777 40.6837 5.23221 41.055ZM4.7106 42.0864C3.08506 39.6704 -4.54175 27.0373 3.9998 13.9999C7.77584 8.23634 15.2259 0.299055 40.5524 0.00822987C41.0285 0.00276494 41.5109 -2.58931e-06 41.9997 1.81779e-09C41.6406 0.331444 41.301 0.666183 40.9796 1.0041C36.1138 6.12034 35.4287 11.9641 34.7068 18.1225C33.952 24.5617 33.1568 31.3449 27.5 37.9999C19.9646 46.8651 8.10646 43.5486 5.51217 42.6817C4.59746 44.4993 3.71305 46.2884 2.86491 48.0041C2.17882 49.3919 1.51647 50.7318 0.881027 51.9999L0 51.5603C0.630371 50.3023 1.28756 48.9732 1.96853 47.596C2.8453 45.8228 3.76149 43.9699 4.7106 42.0864Z" fill="#7859CF"/>
</svg>

<svg xmlns="http://www.w3.org/2000/svg" width="46" height="56" fill="none"><path fill="#F0EBFF" fill-rule="evenodd" d="M38.707 22.122C39.477 15.557 40.204 9.35 46 4 19.507 4 11.847 12.128 8 18c-8.542 13.037-.915 25.67.71 28.086a808.174 808.174 0 0 0-2.741 5.51A848.331 848.331 0 0 1 4 55.56l.881.44c.635-1.268 1.298-2.608 1.984-3.996.848-1.716 1.732-3.505 2.647-5.322 2.595.867 14.453 4.183 21.988-4.682 5.657-6.655 6.452-13.438 7.207-19.878Z" clip-rule="evenodd"/><path fill="#7859CF" fill-rule="evenodd" d="M5.232 41.055C9.19 33.258 13.686 25.095 18.267 20l.733.656C14.431 25.738 9.93 33.953 5.968 41.78A26.194 26.194 0 0 0 13.09 43c4.384.12 9.663-.96 13.648-5.648 5.46-6.423 6.225-12.946 6.983-19.406l.015-.129c.681-5.81 1.384-11.634 5.875-16.794-11.79.23-19.481 2.162-24.667 4.675-5.5 2.665-8.252 6.018-10.108 8.85C.283 21.498.518 28.31 1.903 33.426a28.925 28.925 0 0 0 2.483 6.182c.32.59.612 1.076.846 1.447Zm-.521 1.031C3.085 39.67-4.542 27.037 4 14 7.776 8.236 15.226.3 40.552.008 41.03.003 41.511 0 42 0c-.36.331-.699.666-1.02 1.004-4.866 5.116-5.551 10.96-6.273 17.118-.755 6.44-1.55 13.223-7.207 19.878-7.535 8.865-19.394 5.549-21.988 4.682-.915 1.817-1.799 3.606-2.647 5.322C2.179 49.392 1.516 50.732.88 52L0 51.56c.63-1.258 1.288-2.587 1.969-3.964a808.174 808.174 0 0 1 2.742-5.51Z" clip-rule="evenodd"/></svg>
